Yaru++/mimetypes/16/text-x-nim.svg

<svg height="16" viewBox="0 0 4.2333332 4.2333335" width="16" xmlns="http://www.w3.org/2000/svg" xmlns:xlink="http://www.w3.org/1999/xlink"><linearGradient id="a" gradientUnits="userSpaceOnUse" x1="2.116814" x2="2.116814" y1=".264583" y2="3.96875"><stop offset="0" stop-color="#fff"/><stop offset=".125" stop-color="#fff" stop-opacity=".098039"/><stop offset=".92500001" stop-color="#fff" stop-opacity=".098039"/><stop offset="1" stop-color="#fff" stop-opacity=".498039"/></linearGradient><linearGradient id="b" gradientTransform="matrix(0 -.00953665 .00953638 0 -.943031 4.473863)" gradientUnits="userSpaceOnUse" x1="459.03448" x2="35.310345" y1="419.23337" y2="207.36522"><stop offset="0" stop-color="#f2f2f2"/><stop offset="1" stop-color="#f9f9f9"/></linearGradient><path d="m1.3483848.26458295c-.1902459 0-.3444477.00368-.48575639.02739-.14131132.0237328-.28265438.0730987-.39067583.1808662-.10801879.1077648-.15784248.2495629-.18138246.3911891-.02354791.14162875-.02677319.29646035-.02584979.48730955v.7653285 1.0314622c-.00079375.1900132.002381.3445801.0258498.4857592.0235479.1416261.073361.2834243.18138246.3911891.10802145.1077674.24936451.1571466.39067583.1808665.14130868.023733.29551048.02739.48575638.02739h1.5368588c.1902461 0 .3441118-.00362.4852406-.02739.1411314-.0237596.2824903-.073533.3901572-.1813825.1076669-.1078494.1571731-.2494253.1808666-.3906731.023696-.1412505.0273896-.2951454.0273896-.4857592v-1.0314622-.79375l-1.0583333-1.05833335z" opacity=".1"/><path d="m1.3485859.26458295c-.74286791 0-.82279855.076303-.81915787.82067395v1.0314094 1.0314093c-.003651.7443708.07629.820674.81915787.820674h1.5365677c.7428707 0 .8191607-.076293.8191607-.820674v-1.0314093-1.0583334l-.79375-.79374995z" fill="none" opacity=".2" stroke="#000" stroke-width=".529167"/><path d="m1.3485859.26458295c-.74286791 0-.82279855.076303-.81915787.82067395v1.0314094 1.0314093c-.003651.7443708.07629.820674.81915787.820674h1.5365677c.7428707 0 .8191607-.076293.8191607-.820674v-1.0314093-1.0583334l-.79375-.79374995z" fill="url(#b)"/><g enable-background="new" transform="matrix(.02986164 0 0 .02986164 -19.065281 -16.080862)"><path d="m709.69141 596.61258s-3.41031 2.69499-6.88691 5.37174c-3.57641-.11362-10.59106.68718-14.39187 2.06946-3.50133-2.21819-6.57787-4.66728-6.57787-4.66728s-2.62896 4.52282-4.28224 7.17702c-2.45187 1.30403-4.91362 2.77074-7.10764 4.7113-2.55188-1.01333-5.5101-2.24876-5.60665-2.28959 3.37945 6.81645 5.65131 13.64192 11.83134 17.74436 9.83897-15.53906 55.55981-14.10685 65.60219-.0881 6.49004-3.38511 9.01412-10.66815 11.56647-17.39212-.27986.0922-3.75271 1.25487-6.00396 2.11349-1.34414-1.46336-4.51234-3.71327-6.31301-4.79936-1.70802-3.12771-4.19395-7.35313-4.19395-7.35313s-2.94437 2.1899-6.35714 4.5792c-4.61059-.85108-10.1872-1.88519-14.87749-1.62916-3.19286-2.62436-6.40127-5.54786-6.40127-5.54786z" fill="#f3d400"/><path d="m668.33241 623.47127s4.78987 11.5978 8.1165 19.65678c14.09625 18.59727 50.09234 19.89014 65.7848.36006 3.71345-8.36876 8.72334-20.1298 8.72334-20.1298-4.0259 5.96409-10.5778 10.08114-14.61301 12.29885-2.86735 1.57082-9.48338 2.52031-9.48338 2.52031l-17.36961-9.00108-17.46941 8.82104s-6.52806-1.04882-9.4834-2.4303c-5.96472-3.18408-9.9764-6.94592-14.20583-12.09586z" fill="#ffe953"/></g><path d="m2.1168142.26458295v3.70416665h.7684294c.7428707 0 .8190707-.07624.8190707-.8206211v-1.0314622-1.0583334l-.79375-.79374995z" fill="#fff" opacity=".2"/><path d="m.52931426 2.1166663v1.0314622c-.003651.7443708.0762026.8206211.81907054.8206211h1.5368588c.7428707 0 .8190707-.07624.8190707-.8206211v-1.0314622z" fill="#fff" opacity=".2"/><path d="m1.3483848.26458295c-.74286789 0-.82271122.07625-.81907054.82062105v1.0314623 1.0314622c-.003651.7443708.0762026.8206211.81907054.8206211h1.5368588c.7428707 0 .8190707-.07624.8190707-.8206211v-1.0314622-1.0583334l-.79375-.79374995zm0 .2645833h1.5621795l.5291667.52916665v1.0583334 1.0314622c0 .1815756-.00582.3160131-.019632.3984255-.013811.08241-.029842.099594-.034105.1038701-.00426.00426-.021246.020294-.1033542.034105-.082116.013816-.2162069.019637-.3973963.019637h-1.5368587c-.1811866 0-.3154124-.0063-.39790679-.020161-.08249708-.0138378-.10002044-.0292365-.10438606-.0335889-.00436563-.0043656-.01994959-.0213254-.0335915-.1033542-.01362604-.0820341-.01949979-.2165747-.01860021-.3979095v-.0005292-1.031957-1.0319782-.0005292c-.00079375-.18133745.004974-.31587545.0186002-.39790955.013626-.082034.0292232-.098996.0335915-.1033541.004366-.00437.021881-.019738.10438606-.033589.0824944-.013838.2167202-.020161.3979068-.020161z" fill="url(#a)" opacity=".4"/><path d="m3.7043143 1.3229163v-.2645834l-.79375-.79374995h-.2645834v.4049633.015531.00833c0 .54763725.073308.63208165.6222022.62939615z" opacity=".2"/><path d="m3.7043143 1.0582324-.79375-.79364945v.2943992.012832.00688c0 .45179985.020823.48178775.4736597.47957315z" fill="#faf8f6"/></svg>

<?xml version="1.0" encoding="UTF-8" standalone="no"?>
<svg
   xmlns:dc="http://purl.org/dc/elements/1.1/"
   xmlns:cc="http://creativecommons.org/ns#"
   xmlns:rdf="http://www.w3.org/1999/02/22-rdf-syntax-ns#"
   xmlns:svg="http://www.w3.org/2000/svg"
   xmlns="http://www.w3.org/2000/svg"
   xmlns:xlink="http://www.w3.org/1999/xlink"
   xmlns:sodipodi="http://sodipodi.sourceforge.net/DTD/sodipodi-0.dtd"
   xmlns:inkscape="http://www.inkscape.org/namespaces/inkscape"
   height="16"
   viewBox="0 0 4.2333332 4.2333335"
   width="16"
   version="1.1"
   id="svg39"
   sodipodi:docname="text-x-nim.svg"
   inkscape:version="0.92.5 (2060ec1f9f, 2020-04-08)">
  <metadata
     id="metadata45">
    <rdf:RDF>
      <cc:Work
         rdf:about="">
        <dc:format>image/svg+xml</dc:format>
        <dc:type
           rdf:resource="http://purl.org/dc/dcmitype/StillImage" />
      </cc:Work>
    </rdf:RDF>
  </metadata>
  <defs
     id="defs43">
    <linearGradient
       gradientTransform="matrix(0.26458333,0,0,0.26458333,-84.666518,-62.441666)"
       inkscape:collect="always"
       xlink:href="#linearGradient927"
       id="linearGradient993"
       x1="328"
       y1="237"
       x2="328"
       y2="251"
       gradientUnits="userSpaceOnUse" />
    <linearGradient
       inkscape:collect="always"
       id="linearGradient927">
      <stop
         style="stop-color:#ffffff;stop-opacity:1;"
         offset="0"
         id="stop923" />
      <stop
         id="stop933"
         offset="0.125"
         style="stop-color:#ffffff;stop-opacity:0.09803922" />
      <stop
         id="stop931"
         offset="0.92500001"
         style="stop-color:#ffffff;stop-opacity:0.09803922" />
      <stop
         style="stop-color:#ffffff;stop-opacity:0.49803922"
         offset="1"
         id="stop925" />
    </linearGradient>
    <linearGradient
       inkscape:collect="always"
       xlink:href="#linearGradient4338"
       id="linearGradient920"
       gradientUnits="userSpaceOnUse"
       gradientTransform="matrix(0,-0.00953665,0.00953638,0,-0.94303117,4.4738629)"
       x1="459.03448"
       y1="419.23337"
       x2="35.310345"
       y2="207.36522" />
    <linearGradient
       inkscape:collect="always"
       id="linearGradient4338">
      <stop
         style="stop-color:#f2f2f2;stop-opacity:1"
         offset="0"
         id="stop4340" />
      <stop
         style="stop-color:#f9f9f9;stop-opacity:1"
         offset="1"
         id="stop4342" />
    </linearGradient>
  </defs>
  <sodipodi:namedview
     pagecolor="#ffffff"
     bordercolor="#666666"
     borderopacity="1"
     objecttolerance="10"
     gridtolerance="10"
     guidetolerance="10"
     inkscape:pageopacity="0"
     inkscape:pageshadow="2"
     inkscape:window-width="834"
     inkscape:window-height="480"
     id="namedview41"
     showgrid="false"
     inkscape:zoom="14.75"
     inkscape:cx="8"
     inkscape:cy="8"
     inkscape:window-x="0"
     inkscape:window-y="28"
     inkscape:window-maximized="0"
     inkscape:current-layer="svg39" />
  <linearGradient
     id="a"
     gradientUnits="userSpaceOnUse"
     x1="328"
     x2="328"
     y1="237"
     y2="251">
    <stop
       offset="0"
       stop-color="#fff"
       id="stop2" />
    <stop
       offset=".125"
       stop-color="#fff"
       stop-opacity=".098039"
       id="stop4" />
    <stop
       offset=".92500001"
       stop-color="#fff"
       stop-opacity=".098039"
       id="stop6" />
    <stop
       offset="1"
       stop-color="#fff"
       stop-opacity=".498039"
       id="stop8" />
  </linearGradient>
  <clipPath
     id="b">
    <path
       d="m325.09646 237c-2.80769 0-3.10979.28839-3.09603 3.10176v3.89824 3.89824c-.0138 2.81337.28834 3.10176 3.09603 3.10176h5.8075c2.8077 0 3.09604-.28835 3.09604-3.10176v-3.89824-3.89824c0-2.8134-.28835-3.10176-3.09604-3.10176z"
       id="path11" />
  </clipPath>
  <linearGradient
     id="c"
     gradientTransform="matrix(0 -.00953665 .00953638 0 -.943031 297.24049)"
     gradientUnits="userSpaceOnUse"
     x1="459.03448"
     x2="35.310345"
     y1="419.23337"
     y2="207.36522">
    <stop
       offset="0"
       stop-color="#f2f2f2"
       id="stop14" />
    <stop
       offset="1"
       stop-color="#f9f9f9"
       id="stop16" />
  </linearGradient>
  <path
     style="color:#000000;font-style:normal;font-variant:normal;font-weight:normal;font-stretch:normal;font-size:medium;line-height:normal;font-family:sans-serif;font-variant-ligatures:normal;font-variant-position:normal;font-variant-caps:normal;font-variant-numeric:normal;font-variant-alternates:normal;font-feature-settings:normal;text-indent:0;text-align:start;text-decoration:none;text-decoration-line:none;text-decoration-style:solid;text-decoration-color:#000000;letter-spacing:normal;word-spacing:normal;text-transform:none;writing-mode:lr-tb;direction:ltr;text-orientation:mixed;dominant-baseline:auto;baseline-shift:baseline;text-anchor:start;white-space:normal;shape-padding:0;clip-rule:nonzero;display:inline;overflow:visible;visibility:visible;opacity:0.1;isolation:auto;mix-blend-mode:normal;color-interpolation:sRGB;color-interpolation-filters:linearRGB;solid-color:#000000;solid-opacity:1;vector-effect:none;fill:#000000;fill-opacity:1;fill-rule:nonzero;stroke:none;stroke-width:0.5291667;stroke-linecap:butt;stroke-linejoin:miter;stroke-miterlimit:4;stroke-dasharray:none;stroke-dashoffset:0;stroke-opacity:1;marker:none;color-rendering:auto;image-rendering:auto;shape-rendering:auto;text-rendering:auto;enable-background:accumulate"
     d="m 1.3483848,0.26458295 c -0.1902459,0 -0.3444477,0.00368 -0.48575639,0.02739 C 0.72131709,0.31570575 0.57997403,0.36507165 0.47195258,0.47283915 0.36393379,0.58060395 0.3141101,0.72240205 0.29057012,0.86402825 0.26702221,1.005657 0.26379693,1.1604886 0.26472033,1.3513378 v 0.7653285 1.0314622 c -7.9375e-4,0.1900132 0.002381,0.3445801 0.0258498,0.4857592 0.0235479,0.1416261 0.073361,0.2834243 0.18138246,0.3911891 0.10802145,0.1077674 0.24936451,0.1571466 0.39067583,0.1808665 0.14130868,0.023733 0.29551048,0.02739 0.48575638,0.02739 h 1.5368588 c 0.1902461,0 0.3441118,-0.00362 0.4852406,-0.02739 C 3.5116156,4.1821837 3.6529745,4.1324103 3.7606414,4.0245608 3.8683083,3.9167114 3.9178145,3.7751355 3.941508,3.6338877 3.965204,3.4926372 3.9688976,3.3387423 3.9688976,3.1481285 V 2.1166663 1.3229163 L 2.9105643,0.26458295 Z"
     id="path997"
     inkscape:connector-curvature="0"
     sodipodi:nodetypes="scscccccccsscscscccs" />
  <path
     sodipodi:nodetypes="scccssscccs"
     inkscape:connector-curvature="0"
     id="path928"
     d="m 1.3485859,0.26458295 c -0.74286791,0 -0.82279855,0.076303 -0.81915787,0.82067395 v 1.0314094 1.0314093 c -0.003651,0.7443708 0.07629,0.820674 0.81915787,0.820674 h 1.5365677 c 0.7428707,0 0.8191607,-0.076293 0.8191607,-0.820674 V 2.1166663 1.0583329 l -0.79375,-0.79374995 z"
     style="color:#000000;display:inline;overflow:visible;visibility:visible;opacity:0.2;fill:none;fill-opacity:1;fill-rule:nonzero;stroke:#000000;stroke-width:0.5291667;stroke-miterlimit:4;stroke-dasharray:none;stroke-opacity:1;marker:none;enable-background:accumulate" />
  <path
     style="color:#000000;display:inline;overflow:visible;visibility:visible;fill:url(#linearGradient920);fill-opacity:1;fill-rule:nonzero;stroke:none;stroke-width:0.26458335;marker:none;enable-background:accumulate"
     d="m 1.3485859,0.26458295 c -0.74286791,0 -0.82279855,0.076303 -0.81915787,0.82067395 v 1.0314094 1.0314093 c -0.003651,0.7443708 0.07629,0.820674 0.81915787,0.820674 h 1.5365677 c 0.7428707,0 0.8191607,-0.076293 0.8191607,-0.820674 V 2.1166663 1.0583329 l -0.79375,-0.79374995 z"
     id="path918"
     inkscape:connector-curvature="0"
     sodipodi:nodetypes="scccssscccs" />
  <g
     transform="matrix(0.02986164,0,0,0.02986164,-19.065281,-16.080862)"
     style="display:inline;enable-background:new"
     id="g4459-3-5-6-1"
     inkscape:export-xdpi="100.71429"
     inkscape:export-ydpi="100.71429">
    <path
       style="fill:#f3d400;fill-opacity:1;stroke:none"
       d="m 709.69141,596.61258 c 0,0 -3.41031,2.69499 -6.88691,5.37174 -3.57641,-0.11362 -10.59106,0.68718 -14.39187,2.06946 -3.50133,-2.21819 -6.57787,-4.66728 -6.57787,-4.66728 0,0 -2.62896,4.52282 -4.28224,7.17702 -2.45187,1.30403 -4.91362,2.77074 -7.10764,4.7113 -2.55188,-1.01333 -5.5101,-2.24876 -5.60665,-2.28959 3.37945,6.81645 5.65131,13.64192 11.83134,17.74436 9.83897,-15.53906 55.55981,-14.10685 65.60219,-0.0881 6.49004,-3.38511 9.01412,-10.66815 11.56647,-17.39212 -0.27986,0.0922 -3.75271,1.25487 -6.00396,2.11349 -1.34414,-1.46336 -4.51234,-3.71327 -6.31301,-4.79936 -1.70802,-3.12771 -4.19395,-7.35313 -4.19395,-7.35313 0,0 -2.94437,2.1899 -6.35714,4.5792 -4.61059,-0.85108 -10.1872,-1.88519 -14.87749,-1.62916 -3.19286,-2.62436 -6.40127,-5.54786 -6.40127,-5.54786 z"
       id="path3054-6-3-2-2"
       inkscape:connector-curvature="0"
       sodipodi:nodetypes="ccccccccccccccccc" />
    <path
       style="fill:#ffe953;fill-opacity:1;stroke:none"
       d="m 668.33241,623.47127 c 0,0 4.78987,11.5978 8.1165,19.65678 14.09625,18.59727 50.09234,19.89014 65.7848,0.36006 3.71345,-8.36876 8.72334,-20.1298 8.72334,-20.1298 -4.0259,5.96409 -10.5778,10.08114 -14.61301,12.29885 -2.86735,1.57082 -9.48338,2.52031 -9.48338,2.52031 l -17.36961,-9.00108 -17.46941,8.82104 c 0,0 -6.52806,-1.04882 -9.4834,-2.4303 -5.96472,-3.18408 -9.9764,-6.94592 -14.20583,-12.09586 z"
       id="path3051-7-5-9-7"
       inkscape:connector-curvature="0"
       sodipodi:nodetypes="cccccccccc" />
  </g>
  <path
     style="color:#000000;display:inline;overflow:visible;visibility:visible;opacity:0.2;fill:#ffffff;fill-opacity:1;fill-rule:nonzero;stroke:none;stroke-width:0.26458335;marker:none;enable-background:accumulate"
     d="M 2.1168142,0.26458295 V 3.9687496 h 0.7684294 c 0.7428707,0 0.8190707,-0.07624 0.8190707,-0.8206211 V 2.1166663 1.0583329 l -0.79375,-0.79374995 z"
     id="path1009"
     inkscape:connector-curvature="0"
     sodipodi:nodetypes="ccsscccc" />
  <path
     style="color:#000000;display:inline;overflow:visible;visibility:visible;opacity:0.2;fill:#ffffff;fill-opacity:1;fill-rule:nonzero;stroke:none;stroke-width:0.26458335;marker:none;enable-background:accumulate"
     d="m 0.52931426,2.1166663 v 1.0314622 c -0.003651,0.7443708 0.0762026,0.8206211 0.81907054,0.8206211 h 1.5368588 c 0.7428707,0 0.8190707,-0.07624 0.8190707,-0.8206211 V 2.1166663 Z"
     id="path1016"
     inkscape:connector-curvature="0" />
  <path
     style="color:#000000;font-style:normal;font-variant:normal;font-weight:normal;font-stretch:normal;font-size:medium;line-height:normal;font-family:sans-serif;font-variant-ligatures:normal;font-variant-position:normal;font-variant-caps:normal;font-variant-numeric:normal;font-variant-alternates:normal;font-feature-settings:normal;text-indent:0;text-align:start;text-decoration:none;text-decoration-line:none;text-decoration-style:solid;text-decoration-color:#000000;letter-spacing:normal;word-spacing:normal;text-transform:none;writing-mode:lr-tb;direction:ltr;text-orientation:mixed;dominant-baseline:auto;baseline-shift:baseline;text-anchor:start;white-space:normal;shape-padding:0;clip-rule:nonzero;display:inline;overflow:visible;visibility:visible;opacity:0.4;isolation:auto;mix-blend-mode:normal;color-interpolation:sRGB;color-interpolation-filters:linearRGB;solid-color:#000000;solid-opacity:1;vector-effect:none;fill:url(#linearGradient993);fill-opacity:1;fill-rule:nonzero;stroke:none;stroke-width:0.5291667;stroke-linecap:butt;stroke-linejoin:miter;stroke-miterlimit:4;stroke-dasharray:none;stroke-dashoffset:0;stroke-opacity:1;marker:none;color-rendering:auto;image-rendering:auto;shape-rendering:auto;text-rendering:auto;enable-background:accumulate"
     clip-path="none"
     d="m 1.3483848,0.26458295 c -0.74286789,0 -0.82271122,0.07625 -0.81907054,0.82062105 v 1.0314623 1.0314622 c -0.003651,0.7443708 0.0762026,0.8206211 0.81907054,0.8206211 h 1.5368588 c 0.7428707,0 0.8190707,-0.07624 0.8190707,-0.8206211 V 2.1166663 1.0583329 l -0.79375,-0.79374995 z m 0,0.2645833 H 2.9105643 L 3.439731,1.0583329 v 1.0583334 1.0314622 c 0,0.1815756 -0.00582,0.3160131 -0.019632,0.3984255 -0.013811,0.08241 -0.029842,0.099594 -0.034105,0.1038701 -0.00426,0.00426 -0.021246,0.020294 -0.1033542,0.034105 -0.082116,0.013816 -0.2162069,0.019637 -0.3973963,0.019637 H 1.3483848 c -0.1811866,0 -0.3154124,-0.0063 -0.39790679,-0.020161 C 0.86798093,3.6701673 0.85045757,3.6547686 0.84609195,3.6504162 0.84172632,3.6460506 0.82614236,3.6290908 0.81250045,3.547062 0.79887441,3.4650279 0.79300066,3.3304873 0.79390024,3.1491525 V 3.1486233 2.1166663 1.0846881 1.0841589 c -7.9375e-4,-0.18133745 0.004974,-0.31587545 0.0186002,-0.39790955 0.013626,-0.082034 0.0292232,-0.098996 0.0335915,-0.1033541 0.004366,-0.00437 0.021881,-0.019738 0.10438606,-0.033589 0.0824944,-0.013838 0.2167202,-0.020161 0.3979068,-0.020161 z"
     id="path937"
     inkscape:connector-curvature="0"
     sodipodi:nodetypes="scccssscccsscccscccssccccccccsccs" />
  <path
     inkscape:connector-curvature="0"
     style="color:#000000;display:inline;overflow:visible;visibility:visible;opacity:0.2;fill:#000000;fill-opacity:1;fill-rule:nonzero;stroke:none;stroke-width:0.06615189;marker:none;enable-background:accumulate"
     d="M 3.7043143,1.3229163 V 1.0583329 L 2.9105643,0.26458295 H 2.6459809 v 0.4049633 0.015531 0.00833 c 0,0.54763725 0.073308,0.63208165 0.6222022,0.62939615 z"
     id="rect4158-0-3-62-2-3-7-3"
     sodipodi:nodetypes="ccccccscc" />
  <path
     inkscape:connector-curvature="0"
     style="color:#000000;display:inline;overflow:visible;visibility:visible;fill:#faf8f6;fill-opacity:1;fill-rule:nonzero;stroke:none;stroke-width:0.06615189;marker:none;enable-background:accumulate"
     d="m 3.7043143,1.0582324 -0.79375,-0.79364945 v 0.2943992 0.012832 0.00688 c 0,0.45179985 0.020823,0.48178775 0.4736597,0.47957315 z"
     id="rect4158-0-3-62-6-5-5"
     sodipodi:nodetypes="ccccscc" />
</svg>
